X:43
M:3/2
L:1/4
Q:1/2=100
K:F
c>d e/f/e/d/c2 | EG2cBA | d>e f/g/e/f/d2 | FA2cBA ||
c/G/E/G/ c/G/E/G/ c/G/E/G/ | E/F/G2cBA |
d/A/F/A/ d/A/F/A/ d/A/F/A/ | FA2B/c/d/c/B/A/ |]

